docs/img/svgicons/media/vk.svg

<svg width="134" height="84" viewBox="0 0 134 84" fill="none" xmlns="http://www.w3.org/2000/svg">
<path d="M73.7805 83.4776C28.91 83.4776 1.6788 52.3461 0.620117 0.614014H23.3459C24.0544 38.6151 41.3435 54.742 54.5969 58.0295V0.614014H76.3834V33.4013C89.1672 31.9844 102.54 17.0673 107.045 0.614014H128.466C125.035 20.8563 110.476 35.7733 100.176 41.9264C110.476 46.9014 127.049 59.924 133.441 83.4776H109.887C104.912 67.7327 92.7173 55.538 76.3834 53.8823V83.4776H73.7805Z" fill="#731C00"/>
</svg>

<svg width="134" height="84" fill="none" xmlns="http://www.w3.org/2000/svg"><path d="M73.78 83.478C28.91 83.478 1.68 52.346.62.614h22.726c.708 38.001 17.997 54.128 31.25 57.416V.614h21.787v32.787C89.167 31.984 102.54 17.067 107.045.614h21.421c-3.431 20.242-17.99 35.16-28.29 41.312 10.3 4.975 26.873 17.998 33.265 41.552h-23.554c-4.975-15.745-17.17-27.94-33.504-29.596v29.596h-2.602z" fill="#731C00"/></svg>
